X:1
T:Title
L:1/8
M:6/8
K:Bb
V:1 treble nm="Grand Piano"
V:1
 z3[Q:1/4=140] F2 E | D6- | D2 D G2 F | E3 E3- | E3 B,2 C | D3 D3- | D3 G2 A | B2 B G2 B | c6 | %9
 F6- | F3 F2 E | D6- | D2 D G2 F | E3 E3- | E3 B,2 C | D3 D3- | D3 G2 A | B2 B G2 B | c6 | c6- | %20
 c3 F2 F | B2 B B2 A | A2 G G2 ^F | G3 E3- | E3 C2 D | E2 E C2 E | A3 A3- | A3 F2 F | d2 c c2 B | %29
 B2 G ^F2 G | c3 c3- | c3 c2 B | A2 A F2 A | B3 B3- | B3 B2 B | d3 c3- | c3 B2 A | c3 B3- | %38
 B3 B2 B | d3 c3- | c3 e2 d | d3 B3- | B3 z3 |] %43

